icon-svg/playstation-4.svg

<svg xmlns="http://www.w3.org/2000/svg" fill="#44739e" viewBox="0 0 24 24"><path d="M0 14.5615h1.0494a.042.042 0 0 0 .0263-.0397v-1.5207c0-.4868.2749-.8234.6755-.8234h4.3225c.9744 0 1.4468-.601 1.4468-1.3884 0-.7055-.3866-1.2576-1.1792-1.3583H-.0194c-.0019.004-.005.0071-.005.0121v.4748q0 .036.0359.0361h5.6974c.4843 0 .7115.3486.7115.8353 0 .4869-.2272.8355-.7115.8355H1.2012c-.6995 0-1.2256.5951-1.2256 1.3763v1.5206c0 .0197.0084.0347.0244.0398m12.2792-1.3861v-2.386c0-.4868.2271-.8354.7117-.8354h2.9888c.0183 0 .0359-.0181.0359-.0361v-.4748a.03.03 0 0 0-.0028-.0121h-3.6544c-.7921.1007-1.1791.6528-1.1791 1.3584v2.386c0 .4867-.2335.8354-.7116.8354H7.3113c-.0179 0-.0359.012-.0359.036v.4749c0 .0196.0121.0347.0263.0397h3.5836c.934-.0245 1.3939-.6208 1.3939-1.386m3.7189.8355h5.7393c.0176 0 .0295.012.0295.024v.4868c0 .0241.0183.0361.0359.0361h1.0346c.0183 0 .0357-.012.0357-.0361v-.4748c0-.0181.0183-.036.0359-.036h1.0281c.024 0 .0359-.0181.0359-.036v-.4809c0-.0181-.0119-.0361-.0359-.0361H22.909c-.0176 0-.0359-.018-.0359-.036V9.954c0-.283-.1052-.4632-.282-.523h-.2993c-.0933.024-.1947.0669-.3034.1323l-6.1816 3.8165c-.2391.1502-.3229.3184-.2631.4446.0478.1083.1849.1865.4544.1865m.8965-.6371 4.7887-2.963c.0301-.0241.09-.018.09.0481v2.963c0 .0181-.0183.036-.0359.036h-4.8131c-.0415 0-.0599-.0119-.0655-.024-.0064-.024.0055-.0421.0358-.0601"/></svg>

<?xml version="1.0" encoding="UTF-8"?>
<svg xmlns="http://www.w3.org/2000/svg" viewBox="0 0 24 24" fill="#44739e">
	<path d="M0 14.5615H1.0494C1.0636 14.5565 1.0757 14.5414 1.0757 14.5218V13.0011C1.0757 12.5143 1.3506 12.1777 1.7512 12.1777H6.0737C7.0481 12.1777 7.5205 11.5767 7.5205 10.7893 7.5205 10.0838 7.1339 9.5317 6.3413 9.431H-.0194C-.0213 9.435-.0244 9.4381-.0244 9.4431V9.9179C-.0244 9.9419-.0124 9.954.0115 9.954H5.7089C6.1932 9.954 6.4204 10.3026 6.4204 10.7893 6.4204 11.2762 6.1932 11.6248 5.7089 11.6248H1.2012C.5017 11.6248-.0244 12.2199-.0244 13.0011V14.5217C-.0244 14.5414-.016 14.5564 0 14.5615ZM12.2792 13.1754V10.7894C12.2792 10.3026 12.5063 9.954 12.9909 9.954H15.9797C15.998 9.954 16.0156 9.9359 16.0156 9.9179V9.4431C16.0156 9.439 16.0144 9.4349 16.0128 9.431H12.3584C11.5663 9.5317 11.1793 10.0838 11.1793 10.7894V13.1754C11.1793 13.6621 10.9458 14.0108 10.4677 14.0108H7.3113C7.2934 14.0108 7.2754 14.0228 7.2754 14.0468V14.5217C7.2754 14.5413 7.2875 14.5564 7.3017 14.5614H10.8853C11.8193 14.5369 12.2792 13.9406 12.2792 13.1754ZM15.9981 14.0109H21.7374C21.755 14.0109 21.7669 14.0229 21.7669 14.0349V14.5217C21.7669 14.5458 21.7852 14.5578 21.8028 14.5578H22.8374C22.8557 14.5578 22.8731 14.5458 22.8731 14.5217V14.0469C22.8731 14.0288 22.8914 14.0109 22.909 14.0109H23.9371C23.9611 14.0109 23.973 13.9928 23.973 13.9749V13.494C23.973 13.4759 23.9611 13.4579 23.9371 13.4579H22.909C22.8914 13.4579 22.8731 13.4399 22.8731 13.4219V9.954C22.8731 9.671 22.7679 9.4908 22.5911 9.431H22.2918C22.1985 9.455 22.0971 9.4979 21.9884 9.5633L15.8068 13.3798C15.5677 13.53 15.4839 13.6982 15.5437 13.8244 15.5915 13.9327 15.7286 14.0109 15.9981 14.0109ZM16.8946 13.3738 21.6833 10.4108C21.7134 10.3867 21.7733 10.3928 21.7733 10.4589V13.4219C21.7733 13.44 21.755 13.4579 21.7374 13.4579H16.9243C16.8828 13.4579 16.8644 13.446 16.8588 13.4339 16.8524 13.4099 16.8643 13.3918 16.8946 13.3738Z"/>
</svg>
